build/img/svg/vk.svg

<svg width="16" height="10" viewBox="0 0 16 10" fill="none" xmlns="http://www.w3.org/2000/svg">
<path fill-rule="evenodd" clip-rule="evenodd" d="M15.633 0.677143C15.7437 0.287143 15.633 0 15.103 0H13.3531C12.9077 0 12.7024 0.247857 12.5911 0.521429C12.5911 0.521429 11.7011 2.80429 10.4404 4.28714C10.0325 4.71714 9.84713 4.85357 9.62446 4.85357C9.51313 4.85357 9.3458 4.71714 9.3458 4.32643V0.677143C9.3458 0.208571 9.22314 0 8.85248 0H6.10054C5.82254 0 5.65521 0.217143 5.65521 0.423571C5.65521 0.867143 6.28587 0.97 6.35053 2.21857V4.93143C6.35053 5.52643 6.24854 5.63429 6.02587 5.63429C5.43255 5.63429 3.98925 3.34071 3.1326 0.716428C2.9666 0.205714 2.79861 0 2.35128 0H0.599987C0.0999979 0 0 0.247857 0 0.521429C0 1.00857 0.593321 3.42857 2.76328 6.62929C4.20991 8.815 6.24654 10 8.10183 10C9.21447 10 9.3518 9.73714 9.3518 9.28357V7.63143C9.3518 7.105 9.45714 7 9.80979 7C10.0698 7 10.5144 7.13714 11.5531 8.19071C12.7397 9.44 12.9351 10 13.603 10H15.353C15.853 10 16.1037 9.73714 15.9597 9.21714C15.801 8.7 15.2343 7.94929 14.483 7.05857C14.075 6.55143 13.4631 6.005 13.2771 5.73143C13.0177 5.38071 13.0917 5.22429 13.2771 4.91214C13.2771 4.91214 15.4103 1.75071 15.6323 0.677143H15.633Z" fill="white"/>
</svg>

<svg width="16" height="10" viewBox="0 0 16 10" fill="none" xmlns="http://www.w3.org/2000/svg"><path fill-rule="evenodd" clip-rule="evenodd" d="M15.633.677c.11-.39 0-.677-.53-.677h-1.75c-.445 0-.65.248-.762.521 0 0-.89 2.283-2.15 3.766-.409.43-.594.567-.817.567-.11 0-.278-.137-.278-.528V.677C9.346.21 9.223 0 8.852 0H6.101a.432.432 0 00-.446.424c0 .443.63.546.696 1.795V4.93c0 .595-.102.703-.325.703-.593 0-2.037-2.293-2.893-4.918C2.967.206 2.799 0 2.35 0H.6C.1 0 0 .248 0 .521 0 1.01.593 3.43 2.763 6.63 4.21 8.815 6.247 10 8.102 10c1.112 0 1.25-.263 1.25-.716V7.63c0-.526.105-.631.458-.631.26 0 .704.137 1.743 1.19C12.74 9.44 12.935 10 13.603 10h1.75c.5 0 .75-.263.607-.783-.159-.517-.726-1.268-1.477-2.158-.408-.508-1.02-1.054-1.206-1.328-.26-.35-.185-.507 0-.819 0 0 2.133-3.161 2.355-4.235h.001z" fill="#fff"/></svg>
